X: 5818
T: Caliche Creek
R: polka
M: 2/4
K: Dminor
D/E/F/G/ AA|GG AA|D/E/F/G/ AA|GG FF|
D/E/F/G/ AA|GG AA|D/E/F/G/ A/B/A/G/|F/D/E/F/ DD:|
|:A/c/A/c/ dd|c/d/e/c/ dd|cd ze|ee fe|
dc dd|c/d/ c A/c/ A|GG AA|F/D/E/F/ DD:|

